apps/www/public/images/logos/publicity/betashares.svg

<svg width="149" height="60" viewBox="0 0 149 60" fill="none" xmlns="http://www.w3.org/2000/svg">
<g clip-path="url(#clip0_2080_14366)">
<path fill-rule="evenodd" clip-rule="evenodd" d="M36.3414 30.0029C36.3414 37.0941 30.5929 42.8426 23.5017 42.8426C16.4104 42.8426 10.6619 37.0941 10.6619 30.0029C10.6619 22.9117 16.4104 17.1631 23.5017 17.1631C30.5929 17.1631 36.3414 22.9117 36.3414 30.0029ZM20.6161 24.8637C20.5597 24.8311 20.4885 24.8726 20.4885 24.9379V35.0768C20.4885 35.0917 20.4925 35.1064 20.4999 35.1193C20.5074 35.1322 20.5181 35.143 20.531 35.1505C20.5439 35.158 20.5585 35.162 20.5735 35.1621C20.5884 35.1621 20.6031 35.1583 20.6161 35.151L29.3964 30.0815C29.4528 30.0489 29.4528 29.9658 29.3964 29.9332L20.6161 24.8637ZM22.1482 24.0791C22.0696 24.0791 22.0414 24.1844 22.1096 24.2245H22.1081L29.1517 28.2913C29.2214 28.3313 29.2985 28.2542 29.2585 28.186L26.9655 24.1963C26.924 24.1236 26.8469 24.0791 26.7638 24.0791H22.1482ZM19.0424 34.0905C19.0825 34.1602 19.1878 34.132 19.1878 34.0519V25.9494C19.1878 25.8693 19.0825 25.8426 19.0424 25.9108L16.7583 29.8842C16.7168 29.9569 16.7168 30.0459 16.7583 30.1171L19.0424 34.0905ZM29.1443 31.7278C29.214 31.6878 29.2911 31.7649 29.2511 31.8331L29.2496 31.8346L26.964 35.808C26.9225 35.8807 26.8454 35.9252 26.7623 35.9252H22.1645C22.0859 35.9252 22.0577 35.8199 22.1259 35.7798L29.1443 31.7278ZM31.5811 29.6143C31.7191 29.8546 31.7191 30.1482 31.5811 30.3885L27.8747 36.8344C27.7368 37.0761 27.4787 37.2244 27.2013 37.2244H19.7944C19.6578 37.2242 19.5237 37.188 19.4055 37.1195C19.2873 37.0511 19.1892 36.9527 19.121 36.8344L15.4146 30.3885C15.2767 30.1482 15.2767 29.8546 15.4146 29.6143L19.121 23.1684C19.259 22.9267 19.517 22.7784 19.7944 22.7784H27.2013C27.3379 22.7786 27.472 22.8148 27.5902 22.8833C27.7084 22.9517 27.8065 23.0501 27.8747 23.1684L31.5811 29.6143Z" fill="#7E7E7E"/>
<path fill-rule="evenodd" clip-rule="evenodd" d="M43.3075 32.3299C43.3075 30.6332 44.5608 29.285 46.345 29.285C48.1293 29.285 49.3825 30.6332 49.3825 32.3299C49.3825 34.0267 48.1085 35.3956 46.345 35.3956C44.5815 35.3956 43.3075 34.0267 43.3075 32.3299ZM46.876 37.5002C49.7652 37.5002 51.7408 35.2117 51.7408 32.3299C51.7408 29.4481 49.7652 27.1804 46.876 27.1804C45.4744 27.1804 44.0936 27.8137 43.3713 28.9379V22.9504H41.013V37.254H43.2437V35.4965C43.923 36.7839 45.4106 37.4988 46.876 37.4988V37.5002ZM54.8465 31.1642C55.2084 29.856 56.1843 29.0388 57.6289 29.0388C59.0736 29.0388 60.094 29.856 60.4336 31.1642H54.8465ZM57.7995 37.5596C59.8819 37.5596 61.7091 36.6815 62.6228 34.7193V34.6778C61.985 34.7193 61.0299 34.2892 60.6472 33.779L60.6264 33.7997C60.2438 34.8216 59.2248 35.5781 57.844 35.5781C56.1873 35.5781 54.934 34.5354 54.7205 32.8401H62.6866C63.0692 29.7551 61.0299 27.1181 57.6512 27.1181C54.6552 27.1181 52.4883 29.4481 52.4883 32.3284C52.4883 35.2088 54.6982 37.5596 57.7995 37.5596ZM63.1879 29.4481H64.5687V37.254H66.9492V29.4481H68.4576V27.4043H66.9492V24.2556H64.5687V27.4043H63.1879V29.4481ZM71.2474 32.3299C71.2474 30.6332 72.5007 29.285 74.2849 29.285C76.0692 29.285 77.3447 30.6539 77.3447 32.3299C77.3447 34.0059 76.0914 35.3956 74.2849 35.3956C72.4784 35.3956 71.2474 34.0267 71.2474 32.3299ZM73.7762 37.4795C75.157 37.4795 76.6654 36.8046 77.3447 35.538V37.254H79.6392V27.4043H77.3447V29.1203C76.6654 27.8537 75.157 27.1789 73.7762 27.1789C70.8662 27.1789 68.8892 29.4674 68.8892 32.3284C68.8892 35.1895 70.8647 37.478 73.7762 37.478V37.4795ZM85.0394 37.5611C87.3769 37.5611 88.9698 36.1313 88.9698 34.2714C88.9698 32.4115 87.4822 31.5943 85.91 31.2873L84.9534 31.1033C84.1035 30.9194 83.4657 30.694 83.4657 30.0414C83.4657 29.4689 84.0175 28.9379 84.8896 28.9379C85.8462 28.9379 86.5893 29.4081 86.8222 30.4092H86.8429C87.2463 29.9391 88.203 29.5712 88.8393 29.6528L88.86 29.632C88.4774 28.2423 87.0965 27.0988 84.9504 27.0988C82.8042 27.0988 81.1683 28.4885 81.1683 30.1645C81.1683 31.6773 82.1887 32.5761 84.2489 33.0048L85.247 33.2094C86.0331 33.3934 86.6486 33.6381 86.6486 34.3545C86.6486 35.0708 86.0969 35.6418 85.0557 35.6418C83.7817 35.6418 82.868 34.8246 82.6975 33.8027L82.6767 33.7819C82.2733 34.2521 81.3166 34.5992 80.6804 34.5176L80.6596 34.5384C81.0422 36.3775 82.742 37.5625 85.0364 37.5625L85.0394 37.5611ZM90.1163 37.254H92.4745V31.6551C92.4745 30.2253 93.4949 29.285 94.8965 29.285C96.2981 29.285 97.191 30.1838 97.191 31.5735V37.254H99.5492V30.7355C99.5492 28.6517 97.8925 27.1596 95.7034 27.1596C94.4071 27.1596 93.133 27.7321 92.4745 28.8964V22.9504H90.1163V37.254ZM103.038 32.3299C103.038 30.6332 104.291 29.285 106.075 29.285C107.859 29.285 109.135 30.6539 109.135 32.3299C109.135 34.0059 107.882 35.3956 106.075 35.3956C104.269 35.3956 103.038 34.0267 103.038 32.3299ZM105.566 37.4795C106.947 37.4795 108.456 36.8046 109.135 35.538V37.254H111.429V27.4043H109.135V29.1203C108.456 27.8537 106.947 27.1789 105.566 27.1789C102.656 27.1789 100.679 29.4674 100.679 32.3284C100.679 35.1895 102.655 37.478 105.566 37.478V37.4795ZM113.282 30.1022V37.254H115.64V32.8817C115.64 31.1656 116.171 29.5712 117.892 29.5712C118.402 29.5712 118.848 29.6943 119.081 29.8783H119.102C119.123 29.2449 119.676 28.3254 120.228 27.9783V27.9368C119.845 27.5081 119.166 27.2427 118.252 27.2427C116.956 27.2427 116.042 28.0198 115.575 29.0818V27.4058H113.28V30.1037L113.282 30.1022ZM121.929 31.1642C122.289 29.856 123.267 29.0388 124.711 29.0388C126.156 29.0388 127.176 29.856 127.516 31.1642H121.929ZM124.882 37.5596C126.964 37.5596 128.791 36.6815 129.705 34.7193V34.6778C129.067 34.7193 128.112 34.2892 127.729 33.779L127.709 33.7997C127.326 34.8216 126.307 35.5781 124.926 35.5781C123.27 35.5781 122.016 34.5354 121.803 32.8401H129.769C130.151 29.7551 128.112 27.1181 124.733 27.1181C121.737 27.1181 119.571 29.4481 119.571 32.3284C119.571 35.2088 121.78 37.5596 124.882 37.5596ZM134.745 37.5611C137.082 37.5611 138.675 36.1313 138.675 34.2714C138.675 32.4115 137.188 31.5943 135.615 31.2873L134.659 31.1033C133.809 30.9194 133.171 30.694 133.171 30.0414C133.171 29.4689 133.723 28.9379 134.595 28.9379C135.552 28.9379 136.295 29.4081 136.528 30.4092H136.548C136.952 29.9391 137.908 29.5712 138.545 29.6528L138.565 29.632C138.183 28.2423 136.802 27.0988 134.656 27.0988C132.51 27.0988 130.874 28.4885 130.874 30.1645C130.874 31.6773 131.894 32.5761 133.954 33.0048L134.952 33.2094C135.739 33.3934 136.354 33.6381 136.354 34.3545C136.354 35.0708 135.802 35.6418 134.761 35.6418C133.487 35.6418 132.573 34.8246 132.403 33.8027L132.382 33.7819C131.979 34.2521 131.022 34.5992 130.386 34.5176L130.365 34.5384C130.748 36.3775 132.447 37.5625 134.742 37.5625L134.745 37.5611Z" fill="#7E7E7E"/>
</g>
<defs>
<clipPath id="clip0_2080_14366">
<rect width="128.129" height="25.9198" fill="white" transform="translate(10.5908 17.04)"/>
</clipPath>
</defs>
</svg>

<svg xmlns="http://www.w3.org/2000/svg" width="149" height="60" fill="none" viewBox="0 0 149 60"><g fill="#7e7e7e" fill-rule="evenodd" clip-path="url(#a)" clip-rule="evenodd"><path d="M36.341 30.003c0 7.091-5.748 12.84-12.84 12.84-7.09 0-12.84-5.749-12.84-12.84s5.75-12.84 12.84-12.84c7.092 0 12.84 5.749 12.84 12.84m-15.725-5.14a.085.085 0 0 0-.128.075v10.139a.086.086 0 0 0 .128.074l8.78-5.07a.086.086 0 0 0 0-.148zm1.532-.784c-.078 0-.107.105-.038.145h-.002l7.044 4.067c.07.04.146-.037.107-.105l-2.294-3.99a.23.23 0 0 0-.201-.117zM19.042 34.09c.04.07.146.042.146-.038v-8.103c0-.08-.105-.106-.146-.038l-2.284 3.973a.23.23 0 0 0 0 .233zm10.102-2.362c.07-.04.147.037.107.105l-.001.002-2.286 3.973a.23.23 0 0 1-.202.117h-4.597c-.08 0-.107-.105-.04-.145zm2.437-2.114a.78.78 0 0 1 0 .774l-3.706 6.446a.78.78 0 0 1-.674.39h-7.407a.78.78 0 0 1-.673-.39l-3.706-6.446a.78.78 0 0 1 0-.774l3.706-6.446a.78.78 0 0 1 .673-.39h7.407a.78.78 0 0 1 .674.39zM43.308 32.33c0-1.697 1.253-3.045 3.037-3.045s3.038 1.348 3.038 3.045-1.275 3.066-3.038 3.066c-1.764 0-3.038-1.37-3.038-3.066m3.568 5.17c2.89 0 4.865-2.288 4.865-5.17s-1.976-5.15-4.865-5.15c-1.402 0-2.782.634-3.505 1.758V22.95h-2.358v14.304h2.23v-1.758c.68 1.288 2.168 2.003 3.633 2.003zm7.97-6.336c.362-1.308 1.338-2.125 2.783-2.125s2.465.817 2.805 2.125zM57.8 37.56c2.082 0 3.91-.879 4.823-2.84v-.042c-.638.041-1.593-.389-1.976-.899l-.02.02c-.383 1.023-1.402 1.78-2.783 1.78-1.657 0-2.91-1.044-3.123-2.739h7.966c.382-3.085-1.657-5.722-5.036-5.722-2.996 0-5.163 2.33-5.163 5.21s2.21 5.232 5.312 5.232m5.388-8.112h1.38v7.806h2.381v-7.806h1.509v-2.044h-1.509v-3.148h-2.38v3.148h-1.381zm8.06 2.882c0-1.697 1.253-3.045 3.037-3.045s3.06 1.369 3.06 3.045-1.254 3.066-3.06 3.066-3.038-1.37-3.038-3.066m2.528 5.15c1.381 0 2.89-.675 3.569-1.942v1.716h2.294v-9.85h-2.294v1.716c-.68-1.266-2.188-1.941-3.569-1.941-2.91 0-4.887 2.288-4.887 5.15 0 2.86 1.976 5.149 4.887 5.149zm11.263.081c2.338 0 3.93-1.43 3.93-3.29s-1.487-2.677-3.059-2.984l-.957-.184c-.85-.184-1.487-.409-1.487-1.062 0-.572.552-1.103 1.424-1.103.956 0 1.7.47 1.932 1.471h.02c.404-.47 1.361-.838 1.997-.756l.021-.021c-.383-1.39-1.763-2.533-3.91-2.533-2.146 0-3.782 1.39-3.782 3.066 0 1.512 1.02 2.411 3.08 2.84l.999.204c.786.184 1.402.43 1.402 1.145 0 .717-.552 1.288-1.593 1.288-1.274 0-2.188-.817-2.358-1.84l-.021-.02c-.404.47-1.36.817-1.997.736l-.02.02c.382 1.84 2.082 3.025 4.376 3.025zm5.077-.307h2.359v-5.599c0-1.43 1.02-2.37 2.422-2.37 1.401 0 2.294.899 2.294 2.288v5.681h2.358v-6.518c0-2.084-1.657-3.576-3.846-3.576-1.296 0-2.57.572-3.228 1.736V22.95h-2.359zm12.922-4.924c0-1.697 1.253-3.045 3.037-3.045s3.06 1.369 3.06 3.045-1.253 3.066-3.06 3.066c-1.806 0-3.037-1.37-3.037-3.066m2.528 5.15c1.381 0 2.89-.675 3.569-1.942v1.716h2.294v-9.85h-2.294v1.716c-.679-1.266-2.188-1.941-3.569-1.941-2.91 0-4.887 2.288-4.887 5.15 0 2.86 1.976 5.149 4.887 5.149zm7.716-7.378v7.152h2.358v-4.372c0-1.716.531-3.31 2.252-3.31.51 0 .956.122 1.189.306h.021c.021-.633.574-1.553 1.126-1.9v-.041c-.383-.429-1.062-.694-1.976-.694-1.296 0-2.21.777-2.677 1.839v-1.676h-2.295v2.698zm8.647 1.062c.36-1.308 1.338-2.125 2.782-2.125 1.445 0 2.465.817 2.805 2.125zm2.953 6.396c2.082 0 3.909-.879 4.823-2.84v-.042c-.638.041-1.593-.389-1.976-.899l-.02.02c-.383 1.023-1.402 1.78-2.783 1.78-1.656 0-2.91-1.044-3.123-2.739h7.966c.382-3.085-1.657-5.722-5.036-5.722-2.996 0-5.162 2.33-5.162 5.21s2.209 5.232 5.311 5.232m9.863.001c2.337 0 3.93-1.43 3.93-3.29s-1.487-2.677-3.06-2.984l-.956-.184c-.85-.184-1.488-.409-1.488-1.062 0-.572.552-1.103 1.424-1.103.957 0 1.7.47 1.933 1.471h.02c.404-.47 1.36-.838 1.997-.756l.02-.021c-.382-1.39-1.763-2.533-3.909-2.533s-3.782 1.39-3.782 3.066c0 1.512 1.02 2.411 3.08 2.84l.998.204c.787.184 1.402.43 1.402 1.145 0 .717-.552 1.288-1.593 1.288-1.274 0-2.188-.817-2.358-1.84l-.021-.02c-.403.47-1.36.817-1.996.736l-.021.02c.383 1.84 2.082 3.025 4.377 3.025z"/></g><defs><clipPath id="a"><path fill="#fff" d="M10.59 17.04h128.13v25.92H10.59z"/></clipPath></defs></svg>
